svg/files.svg

<?xml version="1.0" encoding="UTF-8" standalone="no"?>
<svg
   xmlns:dc="http://purl.org/dc/elements/1.1/"
   xmlns:cc="http://creativecommons.org/ns#"
   xmlns:rdf="http://www.w3.org/1999/02/22-rdf-syntax-ns#"
   xmlns:svg="http://www.w3.org/2000/svg"
   xmlns="http://www.w3.org/2000/svg"
   version="1.1"
   id="svg5881"
   width="192"
   height="192"
   viewBox="0 0 192 192">
  <metadata
     id="metadata5887">
    <rdf:RDF>
      <cc:Work
         rdf:about="">
        <dc:format>image/svg+xml</dc:format>
        <dc:type
           rdf:resource="http://purl.org/dc/dcmitype/StillImage" />
        <dc:title></dc:title>
      </cc:Work>
    </rdf:RDF>
  </metadata>
  <defs
     id="defs5885" />
  <path
     id="path4762"
     d="M 18.417969 27.931641 C 13.007661 27.931641 8.6503906 32.286959 8.6503906 37.697266 L 8.6503906 65.908203 L 183.34961 65.908203 L 183.34961 53.699219 C 183.34961 48.288909 178.99234 43.9375 173.58203 43.9375 L 129.64062 43.9375 C 120.84746 43.45796 114.31445 41.583984 114.31445 41.583984 C 114.31445 41.583984 84.083808 34.147687 73.488281 30.642578 C 65.331524 27.944221 64.001299 27.931641 62.78125 27.931641 L 61.275391 27.931641 L 52.878906 27.931641 L 18.417969 27.931641 z M 8.6503906 81.869141 L 8.6503906 108.45312 L 8.6503906 154.30273 C 8.6503906 159.71304 13.007666 164.06836 18.417969 164.06836 L 173.58203 164.06836 C 178.99234 164.06836 183.34961 159.71304 183.34961 154.30273 L 183.34961 81.869141 L 8.6503906 81.869141 z "
     style="opacity:1;fill:#ffffff;fill-opacity:1;stroke:none;stroke-width:7.98000002;stroke-linecap:square;stroke-linejoin:miter;stroke-miterlimit:4;stroke-dasharray:none;stroke-opacity:1;paint-order:fill markers stroke" />
</svg>

<svg xmlns="http://www.w3.org/2000/svg" width="192" height="192" viewBox="0 0 192 192">
    <path d="M18.418 27.932a9.746 9.746 0 0 0-9.768 9.765v28.21h174.7V53.7a9.742 9.742 0 0 0-9.768-9.763h-43.94c-8.795-.48-15.328-2.353-15.328-2.353s-30.23-7.436-40.826-10.94C65.332 27.944 64 27.93 62.78 27.93H18.418zM8.65 81.87v72.432a9.746 9.746 0 0 0 9.768 9.765h155.164a9.746 9.746 0 0 0 9.768-9.765V81.87H8.65z" fill="#fff" paint-order="fill markers stroke"/>
</svg>
